X:1
T:LA BUTTE ROUGE
T:Paroles: Monténus - Musique G.Krier                                     Harmonisation Jean-Paul FINCK
%%score 1 2 3 4
L:1/8
Q:1/4=160
M:3/4
K:Bb
V:1 treble nm="Soprano" snm="S."
V:2 treble nm="Alto" snm="A."
V:3 bass nm="Ténor" snm="T."
V:4 bass nm="Bass" snm="B."
V:1
"^(Tempo Rubato)""_(Accompagnement sur \"Ah\"/\"Ouh\" ou b.f.)" z6 | (B6 | A6 | B6) | z6 | (B6 | %6
 A6 | B6) | z6 | (B6 | A6 | B6) | z6 | (B6 | A6 | B6) | z6 | A6- | A6- | A6- | A4 z2 | (G6 | B6 | %23
 A6) | z6 | A6- | A6- | A6- | A4 z2 | (G6 | (B6) | A4) ||"^REFRAIN" z2 | B6- | B6 | B6- | %36
 B2 z2 z2 | (B6 | (A6) | (B6) | A4) z2 | B6- | B6 | B6- | B2 B2 d2 | f2 e2 d2 | c4 Fd | c2 F2 c2 | %48
 B6 :| %49
V:2
 z6 | F6- | F6- | F6 | z6 | (G6 | E6 | D6) | z6 | (F6 | F6 | F6) | z6 | (G6 | E6 | D6) | C2 C2 D2 | %17
w: ||||||||||||||||1.C'qu'elle en a|
w: ||||||||||||||||2.C'qu'elle en a|
w: ||||||||||||||||3.Peuvent ils son|
 D2 C2 C2 | C2 A,2 C2 | D6 | C2 C2 F2 | =E2 D2 C2 | _D2 =D2 B,2 | A,6 | C2 C2 D2 | D2 C2 C2 | %26
w: bu, du beau|sang, cet te|terre|Sang d'ou vri|ers, et sang|de pa y|sans|Car les ba|dits qui sont|
w: bu, des lar|mes, cet te|terre!|Larmes d'ou vri|ers, lar mes|de pa y|sans,|Car les ban|dits qui sont|
w: ger, dans leurs|fol les é|treintes,|Qu'à cet en|droit où s'é|changent leurs bai|sers,|J'ai en ten|du la nuit|
 C2 A,2 C2 | D6 | C2 C2 F2 | =E2 D2 C2 | _D2 =D2 =E2 | F4 || z2 | F6- | F6 | F6- | F2 z2 z2 | (D6 | %38
w: cau se des|guerres|N'en meurent ja|mais, on n'tue|qu'les in no|cents!|||||||
w: cau se des|guerres|Ne pleurent ja|mais, car ce|sont des ty|rans!|||||||
w: mon ter des|plaintes,|Et j'y ai|vu des gars|au crâne bri|sé!|||||||
 (E6) | (D6) | E4) z2 | F6- | F6 | F6- | F2 D2 F2 | B2 A2 F2 | E4 EE | E2 E2 E2 | D6 :| %49
w: |||||||||||
w: |||||||||||
w: |||||||||||
V:3
 F,2 B,2 C2 | D2 B,2 C2 | D2 B,2 C2 | D6 | D2 F2 E2 | D2 C2 B,2 | C2 D2 C2 | B,6 | F,2 B,2 C2 | %9
w: 1.Sur c'te butte|là y'a vait|pas d'gi go|lettes,|Pas de mar|lous ni de|beaux mus ca|dins.|Ah! c'é tait|
w: 2.Sur c'te butte|là on n'y|f'sait pas la|noce,|Comme à Mont|martre où l'cham|pagne coule à|flots.|Mais les pauvr's|
w: 3.Sur c'te butte|là on y|r'fait les ven|danges,|On y en|tend des cris|et des chan|sons|Fil les et|
 D2 B,2 C2 | D2 B,2 C2 | D6 | D2 F2 E2 | D2 C2 B,2 | C2 D2 C2 | B,6 | z6 | (A,6 | (F,6) | A,6-) | %20
w: loin du mou|lin d'la ga|lette|Et de Pa|name qu'est le|roi des pate|lins.|||||
w: gars qu'a vaient|lais sé des|gosses,|y f'saient en|tendre de ter|ri bles san|glots.|||||
w: gars dou ce|ment y é|changent|des mots d'a|mour qui don|nent le frid|son.|||||
 A,4 z2 | B,6- | (B,4 C2-) | C6 | z6 | (A,6 | (F,6) | A,6-) | A,4 z2 | B,6- | (B,6 | C4) || z2 | %33
w: |||||||||||||
w: |||||||||||||
w: |||||||||||||
 B,6- | B,6 | G,6- | G,2 B,2 D2 | F2 E2 D2 | C2 D2 C2 | B,2 D2 B,2 | C4 z2 | B,6- | B,6 | G,6- | %44
w: |||* 1.Où tous|ceux qui mon|taient rou laient|dans le ra|vin||||
w: |||* 2.Où tous|ceux qui grim|paient rou laient|dans le ra|vin||||
w: |||* 3.Où tous|ceux qui grim|paient rou lainet|dans le ra|vin||||
 G,2 B,2 B,2 | D2 C2 B,2 | A,4 A,G, | A,2 C2 A,2 | B,6 :| %49
w: |||||
w: |||||
w: |||||
V:4
 z6 | (B,,6 | F,6 | G,6) | z6 | (E,6 | F,6 | B,,6) | z6 | (B,,6 | F,6 | G,6) | z6 | (E,6 | F,6 | %15
w: |||||||||||||||
w: |||||||||||||||
w: |||||||||||||||
 B,,6) | z6 | (F,6 | (C,6) | F,6-) | F,4 z2 | (G,6 | (=E,4) (C,2) | F,6) | z6 | (F,6 | (C,6) | %27
w: ||||||||||||
w: ||||||||||||
w: ||||||||||||
 F,6-) | F,4 z2 | (G,6 | (=E,4) (C,2) | F,4) || F,B, | D4 B,C | D4 B,C | D2 B,2 C2 | D2 z4 | %37
w: |||||1.La Butte|Rouge, c'est son|nom, L'bap tême|s'fit un ma|tin|
w: |||||2.La Butte|Rouge c'est son|nom, L'bap tême|s'fit un ma|tin|
w: |||||3.La Butte|Rouge c'est son|nom L'bap tême|s'fit un ma|tin|
 (B,,6 | (F,6) | (B,,6) | F,4) F,B, | D4 B,C | D4 B,C | D2 B,2 C2 | D2 B,2 B,2 | F,2 F,2 F,2 | %46
w: |||* 1.Au jour|d'hui y'a des|vignes il y|pousse du rai|sin Qui boi|ra ce vin|
w: |||* 2.Au jour|d'hui y'a des|vignes, il y|pousse du rai|sin Qui boi|ra ce vin|
w: |||* 3.Main te|nant y'a des|vignes, il y|pousse du rai|sin Mais moi,|j'y vois ces|
 F,4 F,C, | F,2 F,2 F,2 | [B,,F,]6 :| %49
w: là, Boi ra|l'sang des co|pains.|
w: là Boit les|larmes des co|pains.|
w: croix Por tant|l'nom des co|pains.|

